justvector/whatsapp.svg

<?xml version="1.0" encoding="iso-8859-1"?>
<!-- Generator: Adobe Illustrator 15.0.0, SVG Export Plug-In . SVG Version: 6.00 Build 0)  -->
<!DOCTYPE svg PUBLIC "-//W3C//DTD SVG 1.1//EN" "http://www.w3.org/Graphics/SVG/1.1/DTD/svg11.dtd">
<svg version="1.1" id="Layer_1" xmlns="http://www.w3.org/2000/svg" xmlns:xlink="http://www.w3.org/1999/xlink" x="0px" y="0px"
	 width="100px" height="100px" viewBox="0 0 100 100" style="enable-background:new 0 0 100 100;" xml:space="preserve">
<path id="WhatsApp" style="fill-rule:evenodd;clip-rule:evenodd;" d="M95,49.247c0,24.213-19.779,43.841-44.182,43.841
	c-7.746,0-15.025-1.98-21.357-5.455L5,95.406l7.975-23.522c-4.023-6.607-6.34-14.355-6.34-22.637
	c0-24.213,19.781-43.841,44.184-43.841S95,25.034,95,49.247z M50.818,12.388c-20.484,0-37.146,16.535-37.146,36.859
	c0,8.065,2.629,15.534,7.076,21.611l-4.641,13.688l14.275-4.537c5.865,3.851,12.891,6.097,20.436,6.097
	c20.482,0,37.146-16.534,37.146-36.858S71.301,12.388,50.818,12.388z M73.129,59.344c-0.273-0.447-0.994-0.717-2.076-1.254
	c-1.084-0.537-6.41-3.138-7.4-3.495c-0.994-0.358-1.717-0.539-2.439,0.537c-0.721,1.076-2.797,3.495-3.43,4.212
	c-0.631,0.718-1.262,0.808-2.346,0.27c-1.082-0.537-4.572-1.672-8.709-5.333c-3.219-2.848-5.393-6.364-6.025-7.441
	c-0.631-1.075-0.066-1.656,0.475-2.191c0.488-0.482,1.084-1.255,1.625-1.882c0.543-0.628,0.723-1.075,1.082-1.793
	c0.363-0.717,0.182-1.344-0.09-1.883c-0.27-0.537-2.438-5.825-3.34-7.977c-0.902-2.15-1.803-1.792-2.436-1.792
	c-0.631,0-1.354-0.09-2.076-0.09s-1.896,0.269-2.889,1.344c-0.992,1.076-3.789,3.676-3.789,8.963c0,5.288,3.879,10.397,4.422,11.113
	c0.541,0.716,7.49,11.92,18.5,16.223c11.012,4.302,11.012,2.867,12.998,2.688c1.984-0.179,6.406-2.599,7.311-5.108
	C73.398,61.944,73.398,59.792,73.129,59.344z"/>
</svg>

<?xml version="1.0" encoding="UTF-8" standalone="no"?>
<!DOCTYPE svg PUBLIC "-//W3C//DTD SVG 1.1//EN" "http://www.w3.org/Graphics/SVG/1.1/DTD/svg11.dtd">
<svg width="100%" height="100%" viewBox="0 0 100 100" version="1.1" xmlns="http://www.w3.org/2000/svg" xmlns:xlink="http://www.w3.org/1999/xlink" xml:space="preserve" xmlns:serif="http://www.serif.com/" style="fill-rule:evenodd;clip-rule:evenodd;stroke-linejoin:round;stroke-miterlimit:2;">
    <path id="WhatsApp" d="M12.975,71.884C8.952,65.277 35.793,91.108 29.461,87.633L5,95.406L12.975,71.884ZM30.382,80.009C36.247,83.86 16.301,64.781 20.748,70.858L16.107,84.546L30.382,80.009ZM73.129,59.344C72.856,58.897 72.135,58.627 71.053,58.09C69.969,57.553 64.643,54.952 63.653,54.595C62.659,54.237 61.936,54.056 61.214,55.132C60.493,56.208 58.417,58.627 57.784,59.344C57.153,60.062 56.522,60.152 55.438,59.614C54.356,59.077 50.866,57.942 46.729,54.281C43.51,51.433 41.336,47.917 40.704,46.84C40.073,45.765 40.638,45.184 41.179,44.649C41.667,44.167 42.263,43.394 42.804,42.767C43.347,42.139 43.527,41.692 43.886,40.974C44.249,40.257 44.068,39.63 43.796,39.091C43.526,38.554 41.358,33.266 40.456,31.114C39.554,28.964 38.653,29.322 38.02,29.322C37.389,29.322 36.666,29.232 35.944,29.232C35.222,29.232 34.048,29.501 33.055,30.576C32.063,31.652 29.266,34.252 29.266,39.539C29.266,44.827 33.145,49.936 33.688,50.652C34.229,51.368 41.178,62.572 52.188,66.875C63.2,71.177 63.2,69.742 65.186,69.563C67.17,69.384 71.592,66.964 72.497,64.455C73.398,61.944 73.398,59.792 73.129,59.344Z"/>
</svg>
